!! 00000] TT[00
!! NN
!!!OTL: Yongyuan huainian zhou zong li
!!!ARE: Asia, China, Shanxi, Jingbian
!! Ethnic Group: Han
!! I, 20
!!!SCT: C0274
!!!YEM: Copyright 1995, estate of Helmut Schaffrath.
**kern
*ICvox
*Ivox
*M2/4
*k[]
*C:
{8dd
16dd
16ee
8dd
16dd
16cc
=1
8dd
16dd
16cc
[4a
=2
2a]
=3
8cc
16a
16g
16f
16d
16f
16g
=4
2a}
=5
{8a
16a
16cc
8dd
8a
=6
8g
16f
16e
4d
=7
8e
16e
16d
4c
=8
2d}
==
!!!AGN: Shange, Xintianyou. Xin minge
!! neues Volkslied
!!!ONB: ESAC (Essen Associative Code) Database: CHINA
!!!AMT: simple duple
!!!AIN: vox
!!!EED: Helmut Schaffrath
!!!EEV: 1.0
*-
!!!ONB: Tied note syntax fixed by Craig Sapp, 2004/05/03/
